X: 183
T:Shir al Etz
C:Trad.
O:Israel
F: http://www.youtube.com/watch?v=QoJr3pmioGY
F: http://www.youtube.com/watch?v=XD15-RYfi9s
F: http://www.youtube.com/watch?v=4GrmgoD1qII
L:1/8
M:3/4
Q:1/4=160
K:Dm
|:"Dm"DD "Dm"A4     | "Gm"GG"Dm"F4  | "Gm"GG"Dm"F2"C"E2| "Dm"F2"Dm"F4|\
  "Dm"DD "Dm"A4     | "Gm"GG"Dm"F4  | "Gm"GG"Dm"F2"C"E2|"Dm"D2"Dm"D4 :|
  "F"cc"Dm"d3d      |"F"cc"Dm"F4    | "F"c3B"F"cB      |"Dm"A2"Dm"A4 |\
  "F"cc"Dm"d3c      |"Dm"fe"Dm"d4   | "F"c3B"F"cB      |"Dm"A2"Dm"A4 |
  "Dm"FA"F"c3A      |"Dm"AG "Gm"G4  | "Dm"A3F "Dm"FD   | "Dm"D2"F"C4 |\
  "Dm"FE "Gm"G3F    |"Dm"AG "Gm"G4  |
  "Dm"FE"Gm"G2"Gm"G2|"Dm"D2"Dm"D4   |:"Dm"D2 AG GF     |FG GF FE     |\
  EF FE ED          |DF "C"EG "Dm"F2|
  "Dm"D2 AG GF      | FG GF FE      | EF FE ED         | D2 D2 z2    :|



